public/images/loader/headphone.svg

<svg width="32" height="32" viewBox="0 0 32 32" fill="none" xmlns="http://www.w3.org/2000/svg">
<path d="M4 24V16C4 12.8174 5.26428 9.76516 7.51472 7.51472C9.76516 5.26428 12.8174 4 16 4C19.1826 4 22.2348 5.26428 24.4853 7.51472C26.7357 9.76516 28 12.8174 28 16V24" stroke="white" stroke-width="2" stroke-linecap="round" stroke-linejoin="round"/>
<path d="M28 25.3334C28 26.0406 27.719 26.7189 27.219 27.219C26.7189 27.7191 26.0406 28 25.3333 28H24C23.2928 28 22.6145 27.7191 22.1144 27.219C21.6143 26.7189 21.3333 26.0406 21.3333 25.3334V21.3334C21.3333 20.6261 21.6143 19.9478 22.1144 19.4477C22.6145 18.9476 23.2928 18.6667 24 18.6667H28V25.3334ZM4 25.3334C4 26.0406 4.28095 26.7189 4.78105 27.219C5.28115 27.7191 5.95942 28 6.66667 28H8C8.70724 28 9.38552 27.7191 9.88562 27.219C10.3857 26.7189 10.6667 26.0406 10.6667 25.3334V21.3334C10.6667 20.6261 10.3857 19.9478 9.88562 19.4477C9.38552 18.9476 8.70724 18.6667 8 18.6667H4V25.3334Z" stroke="white" stroke-width="2" stroke-linecap="round" stroke-linejoin="round"/>
</svg>

<svg width="32" height="32" fill="none" xmlns="http://www.w3.org/2000/svg"><path d="M4 24v-8a12 12 0 1 1 24 0v8" stroke="#fff" stroke-width="2" stroke-linecap="round" stroke-linejoin="round"/><path d="M28 25.333A2.667 2.667 0 0 1 25.333 28H24a2.667 2.667 0 0 1-2.667-2.667v-4A2.667 2.667 0 0 1 24 18.667h4v6.666zm-24 0A2.667 2.667 0 0 0 6.667 28H8a2.667 2.667 0 0 0 2.667-2.667v-4A2.667 2.667 0 0 0 8 18.667H4v6.666z" stroke="#fff" stroke-width="2" stroke-linecap="round" stroke-linejoin="round"/></svg>
